X:9
T:The Radar Racketeer
T:Harmony 2
C:Murray Blair & Adrian Melvin
L:1/8
R:Jig
M:6/8
Q:"114 bpm"
K:D
[|: {g}f2 B {g}fed | {g}AeA {g}edc | {g}Bf{e}f {g}fed | {g}e2 (f f)ed |
{g}Bf{e}f {g}fed | {g}AeA {g}edc | {g}Bde {g}faf | {g}edc {g}B3 :|]
[|{g}faB {g}fed | {g}AeA {g}edc | B{e}B{G}B d{g}d{G}d | {gef}ede {g}f2 {e}f |
{g}BfB {g}fed | {g}AeA {g}edc | {g}Bde {g}faf | {g}edc {g}B3 |
{g}B6 | A6 | {gf}g6 | gfg a3 |
{g}B6[M:9/8] | {g}A6 {g}Bde [M:6/8] | {g}B2 c2 e2 [Q:1/4=70] | {g}d6 |]

